!!!!SEGMENT: Lps2003-Miserere_mei_Domine.krn
!!!id: Lps2003
!!!AGN: Motet
!!!SCT: Sherr (1989)
!!!voices: 6
!!!COM: Lupus Hellinck
!!!OTL: Miserere mei Domine
**kern	**kern	**kern	**kern	**kern	**kern
*part6	*part5	*part4	*part3	*part2	*part1
*staff6	*staff5	*staff4	*staff3	*staff2	*staff1
*I"Bassus II	*I"Bassus I	*I"Tenor II	*I"Tenor I	*I"Altus	*I"Superius
*I'B. II	*I'B. I	*I'T. II	*I'T. I	*I'A	*I'S
*clefF4	*clefF4	*clefGv2	*clefGv2	*clefG2	*clefG2
*k[]	*k[]	*k[]	*k[]	*k[]	*k[]
*C:	*C:	*C:	*C:	*C:	*C:
*M3/1	*M3/1	*M3/1	*M3/1	*M3/1	*M3/1
*met(O)	*met(O)	*met(O)	*met(O)	*met(O)	*met(O)
!!section: Prima pars: Miserere mei Domine
!!!OMD: Prima pars: Miserere mei Domine
=1	=1	=1	=1	=1	=1
1%3r	1%3r	2.B	1%3r	1%3r	1%3r
.	.	4B	.	.	.
.	.	2B	.	.	.
.	.	2B	.	.	.
.	.	1c	.	.	.
=2	=2	=2	=2	=2	=2
1%3r	2.E	1B	1%3r	1%3r	1%3r
.	4E	.	.	.	.
.	2E	1G	.	.	.
.	2E	.	.	.	.
.	1F	1A	.	.	.
=3	=3	=3	=3	=3	=3
1%3r	1E	2B	1%3r	2.e	1%3r
.	.	1G	.	.	.
.	.	.	.	4e	.
.	1C	.	.	2e	.
.	.	1A	.	2e	.
.	1D	.	.	1f	.
.	.	4G	.	.	.
.	.	4F	.	.	.
=4	=4	=4	=4	=4	=4
1%3r	0E	2G	1%3r	0e	2.b
.	.	1G	.	.	.
.	.	.	.	.	4b
.	.	.	.	.	2b
.	.	2E	.	.	2b
.	1r	1A	.	1c	1cc
=5	=5	=5	=5	=5	=5
1%3r	2r	0G	2.B	1d	1b
.	1G	.	.	.	.
.	.	.	4B	.	.
.	.	.	2B	0e	1g
.	2E	.	2B	.	.
.	1A	1r	1c	.	1a
=6	=6	=6	=6	=6	=6
2.E	0G	2r	1B	2r	0b
.	.	2G	.	1g	.
4E	.	.	.	.	.
2E	.	2E	1G	.	.
2E	.	1e	.	2e	.
1F	1r	.	1A	1a	1r
.	.	2d	.	.	.
=7	=7	=7	=7	=7	=7
1E	1G	2e	1B	0g	2.e
.	.	2.g	.	.	.
.	.	.	.	.	4e
1C	1c	.	1r	.	2e
.	.	4f	.	.	.
.	.	2e	.	.	2e
1D	2B-X	2.d	1r	1r	1f
.	[2A	.	.	.	.
.	.	4c	.	.	.
=8	=8	=8	=8	=8	=8
1E	2A]	1B	1%3r	2r	1e
.	2G	.	.	2g	.
1r	2A	1A	.	2e	1c
.	2F	.	.	1a	.
1r	1B-X	1r	.	.	1d
.	.	.	.	2g	.
=9	=9	=9	=9	=9	=9
1%3r	2.A	1.A	1%3r	2a	1e
.	.	.	.	2.cc	.
.	4B	.	.	.	.
.	2c	.	.	.	1r
.	.	.	.	4b	.
.	2F	2A	.	2a	.
.	2r	1e	.	4g	2r
.	.	.	.	4f	.
.	[2c	.	.	4e	2g
.	.	.	.	4d	.
=10	=10	=10	=10	=10	=10
1%3r	4c]	1c	1%3r	1e	1cc
.	4B	.	.	.	.
.	2A	.	.	.	.
.	2G	1d	.	2r	2b
.	2F	.	.	2f	1a
.	1G	1B	.	4e	.
.	.	.	.	2d	.
.	.	.	.	.	2g
.	.	.	.	8cL	.
.	.	.	.	8BJ	.
=11	=11	=11	=11	=11	=11
1.AA	0r	0A	1%3r	2c	2a
.	.	.	.	2A	2.cc
.	.	.	.	1c	.
.	.	.	.	.	4b
2AA	.	.	.	.	2a
1E	1G	2r	.	1B	4g
.	.	.	.	.	4f
.	.	[2E	.	.	4e
.	.	.	.	.	4d
=12	=12	=12	=12	=12	=12
1C	1c	4E]	1%3r	1r	1e
.	.	4F	.	.	.
.	.	4G	.	.	.
.	.	4E	.	.	.
1D	2B	1F	.	2r	0d
.	1A	.	.	2A	.
1BB	.	1D	.	1B	.
.	2G#i	.	.	.	.
=13	=13	=13	=13	=13	=13
0AA	2A	2E	1.E	2c	1%3r
.	2.c	1e	.	2A	.
.	.	.	.	1e	.
.	4B	.	.	.	.
.	2A	2c	2E	.	.
1r	4G	2d	1B	2r	.
.	4F	.	.	.	.
.	4E	2G	.	2d	.
.	4D	.	.	.	.
=14	=14	=14	=14	=14	=14
1%3r	1E	2B	1G	1g	1%3r
.	.	2c	.	.	.
.	2D	2d	1A	2f	.
.	2C	2e	.	1e	.
.	1D	2.A	1F	.	.
.	.	.	.	2d	.
.	.	4B	.	.	.
=15	=15	=15	=15	=15	=15
1%3r	1C	4c	0E	2e	1g
.	.	4d	.	.	.
.	.	1e	.	2.g	.
.	2r	.	.	.	1cc
.	.	.	.	4f	.
.	2C	2c	.	2e	.
.	1D	1f	1r	2.d	2b
.	.	.	.	.	[2a
.	.	.	.	4c	.
=16	=16	=16	=16	=16	=16
1%3r	2E	2.e	1%3r	1B	2a]
.	2E	.	.	.	2g
.	.	4d	.	.	.
.	1F	2c	.	0A	2a
.	.	2A	.	.	2.cc
.	1F	2c	.	.	.
.	.	.	.	.	4b
.	.	2d	.	.	2a
=17	=17	=17	=17	=17	=17
2r	0C	1e	1.E	2r	4g
.	.	.	.	.	4f
2.c	.	.	.	2.e	4e
.	.	.	.	.	4d
.	.	1r	.	.	1e
4B	.	.	.	4d	.
2A	.	.	2E	2c	.
4G	1r	1r	1B	2B	2r
4F	.	.	.	.	.
4E	.	.	.	2G	2d
4D	.	.	.	.	.
=18	=18	=18	=18	=18	=18
1E	1%3r	1%3r	1G	2B	1g
.	.	.	.	2c	.
2D	.	.	1A	2d	2f
2C	.	.	.	2e	1e
1D	.	.	1F	[1A	.
.	.	.	.	.	2d
=19	=19	=19	=19	=19	=19
0AA	2r	1.E	0E	1A]	2e
.	2.c	.	.	.	2c
.	.	.	.	1r	2e
.	4B	.	.	.	.
.	2A	2E	.	.	2f
1r	4G	1B	1r	1d	2g
.	4F	.	.	.	.
.	4E	.	.	.	2G
.	4D	.	.	.	.
=20	=20	=20	=20	=20	=20
1%3r	1E	1G	1%3r	1g	2B
.	.	.	.	.	2c
.	2D	1A	.	2f	2d
.	2C	.	.	1e	2e
.	1D	1F	.	.	2.A
.	.	.	.	2d	.
.	.	.	.	.	4B
=21	=21	=21	=21	=21	=21
1A	0AA	1E	1c	1e	0c
2A	.	1r	2c	2r	.
2F	.	.	2A	2f	.
1G	1r	1r	1B	2e	1r
.	.	.	.	2d	.
=22	=22	=22	=22	=22	=22
1E	1r	2r	1c	2g	1r
.	.	2G	.	2g	.
2D	1A	2A	1d	1f	2r
2D	.	2D	.	.	2d
2D	2A	1d	1r	1r	2f
2D	2F	.	.	.	2f
=23	=23	=23	=23	=23	=23
2GG	1G	1B	0r	0r	2e
2GG	.	.	.	.	1d
1AA	1E	0A	.	.	.
.	.	.	.	.	2c#i
2r	1D	.	2r	2r	2d
2A	.	.	2f	2d	2a
=24	=24	=24	=24	=24	=24
2A	2r	1%3r	2e	2e	2cc
2A	2A	.	2c	2e	2cc
1D	2F	.	1d	2f	2b
.	2F	.	.	2f	1a
1E	2G	.	1B	1e	.
.	2G	.	.	.	2g#i
=25	=25	=25	=25	=25	=25
[0.AA	0E	0r	[0.A	1.e	0.a
.	.	.	.	2e	.
.	1r	2r	.	1e	.
.	.	[2e	.	.	.
=26	=26	=26	=26	=26	=26
0.AA]	1.A	2e]	0.A]	2c	1%3r
.	.	2e	.	2A	.
.	.	1e	.	2.c	.
.	2A	.	.	.	.
.	.	.	.	4d	.
.	1A	2c	.	1e	.
.	.	2A	.	.	.
=27	=27	=27	=27	=27	=27
1%3r	2F	2c	1%3r	1.f	1.a
.	2D	2d	.	.	.
.	2.F	2A	.	.	.
.	.	1d	.	2f	2a
.	4G	.	.	.	.
.	1A	.	.	1e	1a
.	.	2c#i	.	.	.
=28	=28	=28	=28	=28	=28
1%3r	1.B-X	2d	1%3r	2d	2f
.	.	2.d	.	2.f	2d
.	.	.	.	.	2.f
.	.	4e	.	4e	.
.	2B-i	4f	.	1d	.
.	.	4d	.	.	4g
.	1A	2e	.	.	1a
.	.	2f	.	2c	.
=29	=29	=29	=29	=29	=29
1%3r	2G	2g	1%3r	0.d	1.b-X
.	2.B-i	2.G	.	.	.
.	4A	4A	.	.	.
.	1G	4B	.	.	2b-i
.	.	4c	.	.	.
.	.	4d	.	.	1a
.	.	4e	.	.	.
.	2F#i	2f	.	.	.
=30	=30	=30	=30	=30	=30
1%3r	0G	2e	1%3r	1%3r	2g
.	.	2.d	.	.	2.b-i
.	.	4c	.	.	4a
.	.	2B	.	.	1g
.	1r	1A	.	.	.
.	.	.	.	.	2f#i
=31	=31	=31	=31	=31	=31
1.E	1.G	2G	1%3r	1.B	1g
.	.	2.g	.	.	.
.	.	.	.	.	2r
.	.	4f	.	.	.
2E	2G	2.e	.	2B	1g
1E	1G	.	.	1B	.
.	.	4d	.	.	.
.	.	2B	.	.	2g
=32	=32	=32	=32	=32	=32
2C	1.c	2c	1.e	0r	2g
2AA	.	2C	.	.	2.cc
2.C	.	2.E	.	.	.
.	.	.	.	.	4b
.	2c	.	2e	.	1a
4D	.	4F	.	.	.
1E	2B	1G	1e	2r	.
.	2B	.	.	2G	2g#i
=33	=33	=33	=33	=33	=33
1.F	2A	1r	2c	1c	0a
.	2.c	.	2A	.	.
.	.	2r	2.c	1A	.
.	4B	.	.	.	.
2F	1A	2D	.	.	.
.	.	.	4d	.	.
1E	.	1G	1e	1B	1r
.	2G#i	.	.	.	.
=34	=34	=34	=34	=34	=34
2r	0A	2.F	1.c	4c	2r
.	.	.	.	4B	.
1A	.	.	.	4A	2.cc
.	.	4G	.	4G	.
.	.	2A	.	2F	.
.	.	.	.	.	4b
2D	.	2F	2d	2f	1a
1E	1r	1G	1B	1e	.
.	.	.	.	.	2g#i
=35	=35	=35	=35	=35	=35
1AA	2r	2E	0A	1.c	2a
.	1A	2.F	.	.	2.cc
1r	.	.	.	.	.
.	.	4G	.	.	4b
.	2D	4A	.	2d	1a
.	.	4F	.	.	.
1r	1E	1G	1r	1B	.
.	.	.	.	.	2g#i
=36	=36	=36	=36	=36	=36
2r	2AA	1E	1.A	2A	1a
1AA	2.E	.	.	1c	.
.	.	2r	.	.	[0el
.	4F	.	.	.	.
2GG	2G	2G	2B	2B	.
1AA	2.C	2.E	1c	1A	.
.	4D	4F	.	.	.
=37	=37	=37	=37	=37	=37
00EEl	00El	00Gl	00Bl	00Gl	00e]
==	==	==	==	==	==
*-	*-	*-	*-	*-	*-
!!!system-decoration: [*]
!!!RDF**kern: i = editorial accidental
!!!RDF**kern: l = terminal long
!!!ENC: Benjamin Ory
!!!END: 2021/1/17
!!!EED: Benjamin Ory
!!!EEV: 2021/04/28
!!!YEC: Copyright 2021 Benjamin Ory, All Rights Reserved
!!!ONB: Translated from MusicXML on 2021/04/28
